!!!OTL: Soldatenwehmuth.
!!!OTL-incipit: HOLDE NACHT DEIN DUNKLER SCHLEIER
!!!COM: Volksweise
!!!ARE: Europa, Mitteleuropa, Deutschland
!!!SCT: F0592
!!!TXL: @@DE
!!!YEM: Copyright 1995, estate of Helmut Schaffrath.
**kern	**text
*ICvox	*
*clefG2	*
*M4/4	*
*met(c)	*
*k[b-e-]	*
*B-:	*
!LO:TX:a:t=Langſam.	!
{8.f	1._Hol-
16f	-de
=1	=1
4.b-	Nacht,
8b-	dein
8b-	dunkler
8b-	.
8b-	Schleier
8b-	.
=2	=2
8ddL	hül-
8ccJ	.
8b-L	-let
8aJ	.
4g}	mein
{4f	Ge-
=3	=3
4.b-	-ſicht
8b-	vielleicht
8b-	.
8dd	ʒum
8.ff	letʒ-
16dd	-ten
=4	=4
(4dd	Mal!
4cc)	.
4r}	.
{8f	Morgen
8f	.
=5	=5
4.ee-	lieg'
8ee-	ich
8ee-	ſchon
8ee-	da-
8.ff	-hin
16ee-	ge-
=6	=6
8ee-L	-ſtrek-
8ddJ	.
4dd	-ket,
4r}	.
{8b-/	aus-
8b-/	-ge-
=7	=7
4.g	-löſcht
8ee-	aus
8ff	der
8ee-	Le-
8dd	-bend'
8cc	gen
=8	=8
(4cc	Ʒahl!
4b-)	.
4r}	.
==	==
!!!AGN: Soldaten - Lied
!!!ONB: ESAC (Essen Associative Code) Database: FINK
!!!AMT: simple quadruple
!!!AIN: vox
!!!EED: Helmut Schaffrath
!!!EEV: 1.0
!!!GTL: Soldaten- und Jaegerlieder
!!Text: Volkslied
!!!source: Musikalischer Hausschatz der Deutschen. Eine Sammlung von über 1000 Liedern und Gesängen mit Singstimmen und Klavierbegleitung. Leipzig, Litterarisches Verlags-Haus.
!!!page: 385
!!!URL-scan: https://www.digitale-sammlungen.de/en/view/bsb11144622?page=352
!!!ENC: Anna Maria Matuszewska
!!!EEV: 2024/08/02
*-	*-
